assets/img/icon/social-networks/whatsapp.svg

<svg fill="none" height="14" viewBox="0 0 15 14" width="15" xmlns="http://www.w3.org/2000/svg"><path d="m12.1875 2.0625c-1.2813-1.3125-3.03125-2.0625-4.90625-2.0625-3.8125 0-6.9375 3.125-6.9375 6.9375 0 1.25.34375 2.4375.9375 3.4687l-.96875 3.5938 3.65625-.9375c1.03125.5313 2.15625.8437 3.3125.8437 3.84375 0 7.03125-3.125 7.03125-6.93745 0-1.875-.8125-3.59375-2.125-4.90625zm-4.90625 10.6563c-1.03125 0-2.03125-.2813-2.9375-.8126l-.1875-.125-2.1875.5938.59375-2.125-.15625-.2188c-.5625-.93745-.875-1.99995-.875-3.0937 0-3.15625 2.59375-5.75 5.78125-5.75 1.53125 0 2.9687.59375 4.0625 1.6875s1.75 2.53125 1.75 4.09375c0 3.15625-2.6562 5.75005-5.84375 5.75005zm3.18755-4.31255c-.1876-.09375-1.0313-.5-1.18755-.5625s-.28125-.09375-.40625.09375c-.09375.15625-.4375.5625-.53125.6875-.125.09375-.21875.125-.375.03125-1.03125-.5-1.6875-.90625-2.375-2.0625-.1875-.3125.1875-.28125.5-.9375.0625-.125.03125-.21875 0-.3125s-.40625-.9375-.53125-1.28125c-.15625-.34375-.28125-.3125-.40625-.3125-.09375 0-.21875 0-.3125 0-.125 0-.3125.03125-.46875.21875s-.59375.59375-.59375 1.4375c0 .875.59375 1.6875.6875 1.8125.09375.09375 1.21875 1.84375 2.96875 2.59375 1.09375.5 1.53125.5313 2.09375.4375.3125-.0312.99995-.40625 1.15625-.8125s.1563-.75.0937-.8125c-.0312-.09375-.1562-.125-.3124-.21875z" fill="#353132" fill-opacity=".6"/></svg>

<svg width="15" height="14" viewBox="0 0 15 14" fill="none" xmlns="http://www.w3.org/2000/svg">
<path d="M12.1875 2.0625C10.9062 0.75 9.15625 0 7.28125 0C3.46875 0 0.34375 3.125 0.34375 6.9375C0.34375 8.1875 0.6875 9.375 1.28125 10.4062L0.3125 14L3.96875 13.0625C5 13.5938 6.125 13.9062 7.28125 13.9062C11.125 13.9062 14.3125 10.7812 14.3125 6.96875C14.3125 5.09375 13.5 3.375 12.1875 2.0625ZM7.28125 12.7188C6.25 12.7188 5.25 12.4375 4.34375 11.9062L4.15625 11.7812L1.96875 12.375L2.5625 10.25L2.40625 10.0312C1.84375 9.09375 1.53125 8.03125 1.53125 6.9375C1.53125 3.78125 4.125 1.1875 7.3125 1.1875C8.84375 1.1875 10.2812 1.78125 11.375 2.875C12.4688 3.96875 13.125 5.40625 13.125 6.96875C13.125 10.125 10.4688 12.7188 7.28125 12.7188ZM10.4688 8.40625C10.2812 8.3125 9.4375 7.90625 9.28125 7.84375C9.125 7.78125 9 7.75 8.875 7.9375C8.78125 8.09375 8.4375 8.5 8.34375 8.625C8.21875 8.71875 8.125 8.75 7.96875 8.65625C6.9375 8.15625 6.28125 7.75 5.59375 6.59375C5.40625 6.28125 5.78125 6.3125 6.09375 5.65625C6.15625 5.53125 6.125 5.4375 6.09375 5.34375C6.0625 5.25 5.6875 4.40625 5.5625 4.0625C5.40625 3.71875 5.28125 3.75 5.15625 3.75C5.0625 3.75 4.9375 3.75 4.84375 3.75C4.71875 3.75 4.53125 3.78125 4.375 3.96875C4.21875 4.15625 3.78125 4.5625 3.78125 5.40625C3.78125 6.28125 4.375 7.09375 4.46875 7.21875C4.5625 7.3125 5.6875 9.0625 7.4375 9.8125C8.53125 10.3125 8.96875 10.3438 9.53125 10.25C9.84375 10.2188 10.5312 9.84375 10.6875 9.4375C10.8438 9.03125 10.8438 8.6875 10.7812 8.625C10.75 8.53125 10.625 8.5 10.4688 8.40625Z" fill="#353132" fill-opacity="0.6"/>
</svg>
